X:1
T:Title
%%score { ( 1 3 ) | 2 }
L:1/8
M:4/4
K:Ab
V:1 treble nm="Grand Piano"
V:3 treble 
V:2 bass 
V:1
 z4 z2[Q:1/4=100] [CE]>[CE] | [CA]>[CA] [CA]>[DB] [CA]2 [EA]>[EB] | %2
 [Ec]>[Ac] [Gc]>[Fd] [Ec]2 [Ec]>[Ed] | e>e e>f e2 c2 | z4 B2[K:bass] z2[K:treble] | %5
 [CA]>[CA] [CA]>[DB] [CA]2 [EA]>[EB] | [Ec]>[Ac] [Gc]>[Fd] [Ec]2 [Ec]>[Ed] | %7
 e2 e>f e<c [=DAB]>[DA] |[M:7/8] [EAc]2 [DEB]2 [CEA]3 |[M:1/4] [CE]>[CE] |[M:4/4] z4 [EA]4 | %11
 z2 c2 z4 | e2 [Be]2 [Ae]2 [EAc]>[EAc] | [EBd]2 [EAc]2 [EGB]2 E>[DE] | z4 [EA]4 | z2 c2 z4 | %16
 e>e e>f e<c [=DAB]>[DA] |[M:3/4] [EAc]2 [DEB]2 [CEA]2 |] %18
V:2
 z4 z2 [A,,A,]>[A,,A,] | [A,,E,]>[A,,E,] [A,,E,]>[A,,E,] [A,,E,]2 [C,A,]>[E,G,] | %2
 [A,,A,]>[A,,A,] [A,,A,]>[A,,A,] [A,,A,]2 [A,,A,]>[A,,B,] | %3
 [A,CA]>[A,CA] [A,CA]>[A,DA] [A,CA]2[K:bass] [A,E]2 | %4
 [G,B,E]>[A,E] [G,B,E]>[F,B,=D] [E,G,E]2 [C,A,]>[B,,G,] | %5
 [A,,E,]>[A,,E,] [A,,E,]>[A,,E,] [A,,E,]2 [C,A,]>[E,G,] | %6
 [A,,A,]>[A,,A,] [A,,A,]>[A,,A,] [A,,A,]2 [A,,A,]>[A,,B,] | %7
 [A,CA]2 [A,CA]>[A,DA] [A,CA]<[A,EA][K:bass] F,>F, |[M:7/8] E,2 E,2 A,,3 |[M:1/4] A,,>A,, | %10
[M:4/4] A,,2 A,,2 A,,2 C,>[E,G,E] | [A,E]2 [A,A]2 [A,E]3- [A,E]/[A,B,E]/ | %12
 [A,CA]2[K:bass] [A,D]2 [A,C]2 A,>G, | G,2 A,2 E,>D, C,>B,, | A,,2 A,,2 A,,2 C,>[E,G,E] | %15
 [A,E]2 [A,A]2 [A,E]3 [A,B,E] | [A,CA]>[A,CA] [A,CA]>[A,DA] [A,CA]<[A,EA][K:bass] F,>F, | %17
[M:3/4] E,2 E,2 A,,2 |] %18
V:3
 x8 | x8 | x8 | x8 | d>c B>A z z/[K:bass] D,/ E>[K:treble][DE] | x8 | x8 | x8 |[M:7/8] x7 | %9
[M:1/4] x2 |[M:4/4] [CEA]2 [DFA]2 C2 A,>B | c2 z z/ F/ c3- c/d/ | x8 | x8 | [CEA]2 [DFA]2 C2 A,>B | %15
 c2 z z/ F/ c3 d | x8 |[M:3/4] x6 |] %18

